www/assets/icons/keyboard_option_key.svg

<svg xmlns="http://www.w3.org/2000/svg" width="24" height="24" viewBox="0 0 24 24" fill='currentColor'><path d="M21 5h-6v2h6zM9 5H3v2h4.85l6.92 12H21v-2h-5.07z"/></svg>

<svg width="24" height="24" viewBox="0 0 24 24" xmlns="http://www.w3.org/2000/svg" fill='currentColor'><path d="M21 5H15V7H21V5Z"/><path d="M9 5H3V7H7.85L14.77 19H21V17H15.93L9 5Z"/></svg>
